X: 76
T: AUBONE SURTEES
%R: reel
B: Jean White "100 Popular Hornpipes, Reels, Jigs and Country Dances", Boston 1880 p.32
F: http://www.loc.gov/resource/sm1880.09124.0#seq-1
Z: 2014 John Chambers <jc:trillian.mit.edu>
M: C|
L: 1/8
K: D
% - - - - - - - - - - - - - - - - - - - - - - - - - - - - -
A2 |\
D2FD CDB,D | A,DFA {A}G2FE |\
DAFd Afda | gefd {d}c2BA |
d2df ecaA | B2dB Adfa |\
gbfa gbag | fedc d2 :|
|: g2 |\
fdaf ecBA | dBfd cAGF |\
BGdB Adfa | gefd {d}c2BA |
d2df ecaA | B2dB AdFA |\
G2BG FAGB | AGFE D2 H:|
% - - - - - - - - - - - - - - - - - - - - - - - - - - - - -

%%sep 1 1 500
%%sep 1 1 500
